X: 7
T: Her Long Dark Hair Flowing Down Her Back
R: hornpipe
M: 4/4
L: 1/8
K: Dmaj
de|: "D" fedf "Em" e2dB | "D" AF~F2 "A" ABde | "D" fedf "Em" e2de | "Bm"fbba b2ag |
"D" fedf "Em" e2dB | "D" AF~F2 "A" ABde | "D" fedf "Em" edBA | "Bm" B2BA B2 de :|
|:"D" faab "(A)"afef| "D" dBAB d3e | "Bm" fbba b2ag | "D" fedf "A" ~e2de |
"D" faab "(A)"afef | "Bm" dBAB d3e | "D" fedf "Em" edBA |1 "Bm"B2BA B2 de :|2 "Bm"B2BA B4 ||


Tune 1263	Setting 14573

